X:8164
T:Woodland Revels
O:england
C:Trad
N:"Australian learnt from Graeme Smith"
M:4/4
L:1/8
K:G
E3c B4|E3c B4|c2c2e2c2|B8|
E3c B4|E3c B4|A2B2c2^c2|d4D4|
E3c B4|E3c B4|c2c2e2c2|B8|
c2c2B4|c2c2B4|Bc BA G2F2|E4D4||
G3e d4|G3e d4|B2B2c2B2|A2e2e4|
A3B c4|A3B c4|c2c2B2A2|G2e2d4|
B3c d4|B3c d4|B2B2c2B2|A2e2e4|
e2c2e2c2|d2B2d2B2|dc BA GF GA|B2d2g2fe||
K:D
d2d4cd|e2d2B2G2|E G2E G2A2|B8|
d2d4cd|e2d2B2G2|E A2E A2B2|A2F2E2D2|
d2d4cd|e2d2B2G2|E G2E G2A2|B4G4|
E2e4fe|d2B2A2G2|E4F4|G8
